src/main/resources/static/images/schemacrawler_logo.svg

<?xml version="1.0" encoding="UTF-8"?>
<svg xmlns="http://www.w3.org/2000/svg" xmlns:xlink="http://www.w3.org/1999/xlink" width="150" height="150">
  <defs>
    <path id="cylinder" d="m10,31.67c0,8.66 0,78 0,86.66c0,11.96 29.13,21.67 65,21.67c35.87,0 65,-9.71 65,-21.67c0,-5.77 0,-34.66 0,-86.66c-0.02,0 -0.04,0 -0.04,0c0,-11.96 -29.09,-21.67 -64.96,-21.67c-35.87,0 -65,9.71 -65,21.67z" />
    <path id="top" d="m75,45.3c-34.64,0 -62.73,-7.9 -62.73,-17.65c0,-9.75 28.09,-17.65 62.73,-17.65c34.64,0 62.73,7.9 62.73,17.65c0,9.75 -28.09,17.65 -62.73,17.65z" />
    <path id="d1UjwLgAN" d="m51.03,103.63c-5.19,12.37 -38.95,12.87 -35.25,-13.52c4.59,19.96 25.51,18.5 35.25,13.52z" />
    <path id="a37p6S2z8X" d="m83.41,50.58c49.92,1.14 37.61,53.13 -3.77,42.84c27.31,-1.13 38.38,-34.14 3.77,-42.84z" />
    <path id="b6eQmYXOdn" d="m47.5,110.07c1.01,11.91 -23.84,14.49 -27.24,-0.16c9.72,9.25 21.43,6.75 27.24,0.16z" />
    <path id="a5czXR7ye5" d="m118.88,62.96c30.05,20.41 -1.47,52.28 -29.83,32.82c18.2,8.03 47.66,-9.51 29.83,-32.82z" />
    <path id="aBpqLzCfg" d="m46.65,117.3c3.43,11.63 -10.97,12.33 -16.87,4.68c9.84,4.6 15.44,0.16 16.87,-4.68z" />
    <path id="b8QaD8LiC" d="m110.86,127.95c-4.21,5.17 -14.41,2.55 -10.32,-4.59c0.39,3.67 4.91,6.83 10.32,4.59z" />
    <path id="a9zWdgunQ" d="m49.46,123.8c4.09,7.14 -6.11,9.76 -10.32,4.59c5.41,2.24 9.93,-0.91 10.32,-4.59z" />
    <path id="a6tZXthQTR" d="m120.22,121.54c-5.9,7.65 -20.3,6.94 -16.87,-4.69c1.43,4.84 7.03,9.28 16.87,4.69z" />
    <path id="jrRdbEQyt" d="m60.95,96.22c-28.36,19.46 -59.88,-12.41 -29.83,-32.82c-17.83,23.32 11.63,40.85 29.83,32.82z" />
    <path id="c15bXT4mAo" d="m129.74,109.46c-3.4,14.66 -28.25,12.08 -27.24,0.16c5.81,6.6 17.52,9.1 27.24,-0.16z" />
    <path id="e4RWMTPqoe" d="m70.28,93.42c-41.37,10.29 -53.69,-41.7 -3.77,-42.84c-34.6,8.7 -23.54,41.71 3.77,42.84z" />
    <path id="aHVWsSIsU" d="m134.22,89.66c3.7,26.39 -30.06,25.9 -35.25,13.53c9.74,4.98 30.66,6.43 35.25,-13.53z" />
  </defs>
  <g>  
    <use id="svg_6" stroke-width="2" stroke="#000000"  xlink:href="#cylinder" />
    <use id="svg_4" fill="#7b2a90" xlink:href="#cylinder" />
    <use id="svg_10" stroke-width="2" stroke="#000000" fill-opacity="0" xlink:href="#top" />
    <use id="svg_8" fill="#9331ad" xlink:href="#top" />
    <use id="svg_14" stroke="#2a2a2a" fill-opacity="0" xlink:href="#d1UjwLgAN" />
    <use id="svg_12" fill="#ffffff" xlink:href="#d1UjwLgAN" />
    <use id="svg_18" stroke="#2a2a2a" fill-opacity="0" xlink:href="#a37p6S2z8X" />
    <use id="svg_16" fill="#ffffff" xlink:href="#a37p6S2z8X" />
    <use id="svg_22" stroke="#2a2a2a" fill-opacity="0" xlink:href="#b6eQmYXOdn" />
    <use id="svg_20" fill="#ffffff" xlink:href="#b6eQmYXOdn" />
    <use id="svg_26" stroke="#2a2a2a" fill-opacity="0" xlink:href="#a5czXR7ye5" />
    <use id="svg_24" fill="#ffffff" xlink:href="#a5czXR7ye5" />
    <use id="svg_30" stroke="#2a2a2a" fill-opacity="0" xlink:href="#aBpqLzCfg" />
    <use id="svg_28" fill="#ffffff" xlink:href="#aBpqLzCfg" />
    <use id="svg_34" stroke="#2a2a2a" fill-opacity="0" xlink:href="#b8QaD8LiC" />
    <use id="svg_32" fill="#ffffff" xlink:href="#b8QaD8LiC" />
    <use id="svg_38" stroke="#2a2a2a" fill-opacity="0" xlink:href="#a9zWdgunQ" />
    <use id="svg_36" fill="#ffffff" xlink:href="#a9zWdgunQ" />
    <use id="svg_42" stroke="#2a2a2a" fill-opacity="0" xlink:href="#a6tZXthQTR" />
    <use id="svg_40" fill="#ffffff" xlink:href="#a6tZXthQTR" />
    <use id="svg_46" stroke="#2a2a2a" fill-opacity="0" xlink:href="#jrRdbEQyt" />
    <use id="svg_44" fill="#ffffff" xlink:href="#jrRdbEQyt" />
    <use id="svg_50" stroke="#2a2a2a" fill-opacity="0" xlink:href="#c15bXT4mAo" />
    <use id="svg_48" fill="#ffffff" xlink:href="#c15bXT4mAo" />
    <use id="svg_54" stroke="#2a2a2a" fill-opacity="0" xlink:href="#e4RWMTPqoe" />
    <use id="svg_52" fill="#ffffff" xlink:href="#e4RWMTPqoe" />
    <use id="svg_58" stroke="#2a2a2a" fill-opacity="0" xlink:href="#aHVWsSIsU" />
    <use id="svg_56" fill="#ffffff" xlink:href="#aHVWsSIsU" />
  </g>
</svg>

<?xml version="1.0" encoding="UTF-8"?>
<!DOCTYPE svg PUBLIC "-//W3C//DTD SVG 1.1//EN" "http://www.w3.org/Graphics/SVG/1.1/DTD/svg11.dtd">
<svg xmlns="http://www.w3.org/2000/svg" xmlns:xlink="http://www.w3.org/1999/xlink" version="1.1" preserveAspectRatio="xMidYMid meet" viewBox="0 0 150 150" width="150" height="150">
  <defs>
    <path d="M10 31.67C10 40.33 10 109.67 10 118.33C10 130.29 39.13 140 75 140C110.87 140 140 130.29 140 118.33C140 112.56 140 83.67 140 31.67C139.98 31.67 139.96 31.67 139.96 31.67C139.96 19.71 110.87 10 75 10C39.13 10 10 19.71 10 31.67Z" id="e1bsvuJJQV" />
    <path d="M75 45.3C40.36 45.3 12.27 37.4 12.27 27.65C12.27 17.9 40.36 10 75 10C109.64 10 137.73 17.9 137.73 27.65C137.73 37.4 109.64 45.3 75 45.3Z" id="b12NnrJ84" />
    <path d="M51.03 103.63C45.84 116 12.08 116.5 15.78 90.11C20.37 110.07 41.29 108.61 51.03 103.63Z" id="d1UjwLgAN" />
    <path d="M83.41 50.58C133.33 51.72 121.02 103.71 79.64 93.42C106.95 92.29 118.02 59.28 83.41 50.58Z" id="a37p6S2z8X" />
    <path d="M47.5 110.07C48.51 121.98 23.66 124.56 20.26 109.91C29.98 119.16 41.69 116.66 47.5 110.07Z" id="b6eQmYXOdn" />
    <path d="M118.88 62.96C148.93 83.37 117.41 115.24 89.05 95.78C107.25 103.81 136.71 86.27 118.88 62.96Z" id="a5czXR7ye5" />
    <path d="M46.65 117.3C50.08 128.93 35.68 129.63 29.78 121.98C39.62 126.58 45.22 122.14 46.65 117.3Z" id="aBpqLzCfg" />
    <path d="M110.86 127.95C106.65 133.12 96.45 130.5 100.54 123.36C100.93 127.03 105.45 130.19 110.86 127.95Z" id="b8QaD8LiC" />
    <path d="M49.46 123.8C53.55 130.94 43.35 133.56 39.14 128.39C44.55 130.63 49.07 127.48 49.46 123.8Z" id="a9zWdgunQ" />
    <path d="M120.22 121.54C114.32 129.19 99.92 128.48 103.35 116.85C104.78 121.69 110.38 126.13 120.22 121.54Z" id="a6tZXthQTR" />
    <path d="M60.95 96.22C32.59 115.68 1.07 83.81 31.12 63.4C13.29 86.72 42.75 104.25 60.95 96.22Z" id="jrRdbEQyt" />
    <path d="M129.74 109.46C126.34 124.12 101.49 121.54 102.5 109.62C108.31 116.22 120.02 118.72 129.74 109.46Z" id="c15bXT4mAo" />
    <path d="M70.28 93.42C28.91 103.71 16.59 51.72 66.51 50.58C31.91 59.28 42.97 92.29 70.28 93.42Z" id="e4RWMTPqoe" />
    <path d="M134.22 89.66C137.92 116.05 104.16 115.56 98.97 103.19C108.71 108.17 129.63 109.62 134.22 89.66Z" id="aHVWsSIsU" />
  </defs>
  <g>
    <g>
      <g>
        <use xlink:href="#e1bsvuJJQV" opacity="1" fill="#7b2a90" fill-opacity="1" />
        <g>
          <use xlink:href="#e1bsvuJJQV" opacity="1" fill-opacity="0" stroke="#000000" stroke-width="2" stroke-opacity="1" />
        </g>
      </g>
      <g>
        <use xlink:href="#b12NnrJ84" opacity="1" fill="#9331ad" fill-opacity="1" />
        <g>
          <use xlink:href="#b12NnrJ84" opacity="1" fill-opacity="0" stroke="#000000" stroke-width="2" stroke-opacity="1" />
        </g>
      </g>
      <g>
        <use xlink:href="#d1UjwLgAN" opacity="1" fill="#ffffff" fill-opacity="1" />
        <g>
          <use xlink:href="#d1UjwLgAN" opacity="1" fill-opacity="0" stroke="#2a2a2a" stroke-width="1" stroke-opacity="1" />
        </g>
      </g>
      <g>
        <use xlink:href="#a37p6S2z8X" opacity="1" fill="#ffffff" fill-opacity="1" />
        <g>
          <use xlink:href="#a37p6S2z8X" opacity="1" fill-opacity="0" stroke="#2a2a2a" stroke-width="1" stroke-opacity="1" />
        </g>
      </g>
      <g>
        <use xlink:href="#b6eQmYXOdn" opacity="1" fill="#ffffff" fill-opacity="1" />
        <g>
          <use xlink:href="#b6eQmYXOdn" opacity="1" fill-opacity="0" stroke="#2a2a2a" stroke-width="1" stroke-opacity="1" />
        </g>
      </g>
      <g>
        <use xlink:href="#a5czXR7ye5" opacity="1" fill="#ffffff" fill-opacity="1" />
        <g>
          <use xlink:href="#a5czXR7ye5" opacity="1" fill-opacity="0" stroke="#2a2a2a" stroke-width="1" stroke-opacity="1" />
        </g>
      </g>
      <g>
        <use xlink:href="#aBpqLzCfg" opacity="1" fill="#ffffff" fill-opacity="1" />
        <g>
          <use xlink:href="#aBpqLzCfg" opacity="1" fill-opacity="0" stroke="#2a2a2a" stroke-width="1" stroke-opacity="1" />
        </g>
      </g>
      <g>
        <use xlink:href="#b8QaD8LiC" opacity="1" fill="#ffffff" fill-opacity="1" />
        <g>
          <use xlink:href="#b8QaD8LiC" opacity="1" fill-opacity="0" stroke="#2a2a2a" stroke-width="1" stroke-opacity="1" />
        </g>
      </g>
      <g>
        <use xlink:href="#a9zWdgunQ" opacity="1" fill="#ffffff" fill-opacity="1" />
        <g>
          <use xlink:href="#a9zWdgunQ" opacity="1" fill-opacity="0" stroke="#2a2a2a" stroke-width="1" stroke-opacity="1" />
        </g>
      </g>
      <g>
        <use xlink:href="#a6tZXthQTR" opacity="1" fill="#ffffff" fill-opacity="1" />
        <g>
          <use xlink:href="#a6tZXthQTR" opacity="1" fill-opacity="0" stroke="#2a2a2a" stroke-width="1" stroke-opacity="1" />
        </g>
      </g>
      <g>
        <use xlink:href="#jrRdbEQyt" opacity="1" fill="#ffffff" fill-opacity="1" />
        <g>
          <use xlink:href="#jrRdbEQyt" opacity="1" fill-opacity="0" stroke="#2a2a2a" stroke-width="1" stroke-opacity="1" />
        </g>
      </g>
      <g>
        <use xlink:href="#c15bXT4mAo" opacity="1" fill="#ffffff" fill-opacity="1" />
        <g>
          <use xlink:href="#c15bXT4mAo" opacity="1" fill-opacity="0" stroke="#2a2a2a" stroke-width="1" stroke-opacity="1" />
        </g>
      </g>
      <g>
        <use xlink:href="#e4RWMTPqoe" opacity="1" fill="#ffffff" fill-opacity="1" />
        <g>
          <use xlink:href="#e4RWMTPqoe" opacity="1" fill-opacity="0" stroke="#2a2a2a" stroke-width="1" stroke-opacity="1" />
        </g>
      </g>
      <g>
        <use xlink:href="#aHVWsSIsU" opacity="1" fill="#ffffff" fill-opacity="1" />
        <g>
          <use xlink:href="#aHVWsSIsU" opacity="1" fill-opacity="0" stroke="#2a2a2a" stroke-width="1" stroke-opacity="1" />
        </g>
      </g>
    </g>
  </g>
</svg>
